X:1
T:[ID 1-141a]
T:[ID 1-141a]
T:Bezeichnung standardisiert: Menuett Menuet In dieser Quelle auch als: Menuetto
T:Urheber unbekannt Erstbeleg: vor 1767 (Datum in der schriftlichen Quelle) Datum in der hier transkribierten schriftlichen Quelle: 1767
C:Urheber unbekannt
C:Erstbeleg: vor 1767 (Datum in der schriftlichen Quelle)
C:Datum in der hier transkribierten schriftlichen Quelle: 1767
L:1/8
M:3/4
K:D
V:1 treble 
V:1
 D2 D2 D2 | A4 FD | E2 F2 G2 | A4 FD | E2 F2 G2 | A2 a^gae | afedcB |{B} A6 :: a2 a2 a2 | b2 babg | %10
 g2 g2 g2 | a2 agaf | ABcdef | gecA d2 | egfedc | d6 :| %16

